!!!COM: Augusta Holme\s
!!!CNT: Francais
!!!TXO: Francais
!!!OTL: "C'est un oiseau du bois sauvage"
!!!LYR: 
!!!OPR: 
!!!OPS: Op. 
!!!ONM: No. 
!!!ENC: Alyona Dzerbina
!!!YOR: Augusta Holme\s, C'est un oiseau du bois sauvage
!!!YOR: Da Capo Press, New York, 1984
!!!ODT: 1899/
!!NB: Vocal melody and text encoded.
**kern	**text
*staff1	*staff1
=1-	=1-
*clefG2	*
*k[f#c#]	*
*M3/4	*
2.r	.
=2	=2
2.r	.
=3	=3
2.r	.
=4	=4
2.r	.
=5	=5
*M2/4	*
2r	.
=6	=6
*M3/4	*
{24f#	{C'est
24d	un
24e	oi-
4f#	-seau
8f#	du
8.g	bois
16g	sau-
=7	=7
(8.b	-va-
32a	|
32g	|
4f#)}	-ge}
{8.d	{Qui
16e	m'a
=8	=8
[4f#	dit:
16f#]	|
16d	"Tu
16c#	l'ai-
16B	-me-
8.f#	-ras
16f#	tou-
=9	=9
[4B	-jours."
8B]}	|}
8r	.
4r	.
=10	=10
{24f#	{C'est
24d	u-
24e	-ne
4f#	va-
8f#	-gue
8.g	du
16g	ri-
=11	=11
(8b	-va-
16a	|
16g	|
4f#)}	-ge}
{8.a	{Qui
16dd	m'a
=12	=12
[4cc#	dit:
16cc#]	|
16a	"Re-
16g#	-nonce
16f#	a\
8.cc#	tes
16cc#	a-
=13	=13
[4cc#	-mours..."
8cc#]}	|}
8r	.
{8ee	{Mais
16dd	cet
16cc#	oi-
=14	=14
*met(C)	*
*M4/4	*
8dd	-seau
8b	du
8a#	bois
8cc#	sau-
(8b	-va-
8f#	|
8e	|
8g	|
=15	=15
*M3/4	*
16f#)}	-ge}
16r	.
{16d	{M'a
16e	bien
4f#	dit:
16r	.
16d	"Tu
16c#	l'ai-
16B	-me-
=16	=16
2f#	-ras
4f#	tou-
=17	=17
[4f#	-jours!"
8f#]}	|}
8r	.
4r	.
=18	=18
2.r	.
=19	=19
2.r	.
=20	=20
*M2/4	*
2r	.
=21	=21
*M3/4	*
{24f#	{Pour
24d	u-
24e	-ne
4f#	fleur
8f#	de
8.g	ta
16g	cein-
=22	=22
(8.b	-tu-
32a	|
32g	|
4f#)}	-re}
{8.d	{J'ai
16e	don-
=23	=23
[4f#	-ne/-
16f#]	|
16d	ma
16c#	vie
16B	et
8.f#	mon
16f#	re-
=24	=24
[4B	-pos.
8B]}	|}
8r	.
4r	.
=25	=25
{24f#	{Loin
24d	de
24e	tes
4f#	yeux
8f#	le
8.g	temps
16g	me
=26	=26
(8b	du-
16a	|
16g	|
4f#)}	-re!}
{8.a	{Je
16dd	lan-
=27	=27
[4cc#	-guis
16cc#]	|
16a	pour
16g#	tes
16f#	re-
8.cc#	-gards
16cc#	si
=28	=28
[4cc#	beaux!
8cc#]}	|}
8r	.
{8ee	{Pour
16dd	u-
16cc#	-ne
=29	=29
*met(C)	*
*M4/4	*
8dd	fleur
8b	de
8a#	ta
8cc#	cein-
(8b	-tu-
8f#	|
8e	|
8g	|
=30	=30
*M3/4	*
8f#)}	-re}
{16d	{J'ai
16e	don-
4f#	-ne/
16r	.
16d	ma
16c#	vie
16B	et
=31	=31
2f#	mon
4f#	re-
=32	=32
[4f#	-pos!
8f#]}	|}
8r	.
4r	.
=33	=33
2.r	.
=34	=34
2.r	.
=35	=35
*M2/4	*
2r	.
=36	=36
*M3/4	*
{24f#	{Pour
24d	un
24e	bai-
4f#	-ser
8f#	sous
8.g	les
16g	e/-
=37	=37
(8.b	-toi-
32a	|
32g	|
4f#)}	-les}
{8.d	{J'ai
16e	ven-
=38	=38
[4f#	-du-
16f#]	|
16d	-ma
16c#	force
16B	et
8.f#	mon
16f#	hon-
=39	=39
[4B	-neur.
8B]}	|}
8r	.
4r	.
=40	=40
{24f#	{Pour
24d	ta
24e	blan-
4f#	-cheur
8f#	pure
8.g	et
16g	sans
=41	=41
(8b	voi-
16a	|
16g	|
4f#)}	-les}
{8.a	{J'ai
16dd	per-
=42	=42
[4cc#	-du
16cc#]	|
16a	la
16g#	pu-
16f#	-re-
8.cc#	-te/
16cc#	du
=43	=43
[4cc#	coeur!
8cc#]}	|}
8r	.
{8ee	{Pour
16dd	un
16cc#	bai-
=44	=44
*met(C)	*
*M4/4	*
8dd	-ser
8b	sous
8a#	les
8cc#	e/-
(8b	-toi-
8f#	|
8e	|
8g	|
=45	=45
*M3/4	*
8f#)}	-les}
{16d	{J'ai
16e	ven-
4f#	-du
16r	.
16d	ma
16c#	force
16B	et
=46	=46
2f#	mon
4f#	hon-
=47	=47
[4f#	-neur!
8f#]}	|}
8r	.
4r	.
=48	=48
2.r	.
=49	=49
2.r	.
=50	=50
*M2/4	*
2r	.
=51	=51
*M3/4	*
{24f#	{Rien-
24d	-ne
24e	pour-
4f#	-ra
8f#	bri-
8.g	-ser
16g	les
=52	=52
(8.b	char-
32a	|
32g	|
4f#)}	-mes}
{8.d	{Dont
16e	je
=53	=53
[4f#	meurs
16f#]	|
16d	poer
16c#	e/-
16B	-ter-
8.f#	-nel-
16f#	-le-
=54	=54
[4B	-ment.
8B]}	|}
8r	.
4r	.
=55	=55
{24f#	{Je
24d	te
24e	ver-
4f#	-rai
8f#	rail-
8.g	-ler
16g	mes
=56	=56
(8b	lar-
16a	|
16g	|
4f#)}	-mes}
{8.a	{Dans
16dd	les
=57	=57
[4cc#	bras
16cc#]	|
16a	de
16g#	ton
16f#	nou-
8.cc#	-vel
16cc#	a-
=58	=58
[4cc#	-mant!
8cc#]}	|}
8r	.
{8ee	{Rien
16dd	ne
16cc#	pour-
=59	=59
*met(C)	*
*M4/4	*
8dd	-ra
8b	bri-
8a#	-ser
8cc#	les
(8b	char-
8f#	|
8e	|
8g	|
=60	=60
16f#)}	-mes}
16r	.
{16d	{Dont
16e	je
4f#	meurs
16r	.
16d	pour
16c#	e/-
16B	-ter-
8.f#	-nel-
16f#	-le-
=61	=61
*M3/4	*
[4f#	-ment...
8f#]}	|}
8r	.
8r	.
16r	.
{16f#	{Ta
=62	=62
4ff#	mort
([4ee	seu-
16ee]	|
16dd	|
16cc#)	-le
16ee	rom-
=63	=63
*met(C)	*
*M4/4	*
8dd	-pra
8b	les
(8a#	char-
8cc#	|
8b	|
8f#	|
8e	|
8g	|
=64	=64
*M3/4	*
8f#)}	-mes}
{16d	{Dont
16e	je
[4f#	meurs
16f#]	|
16d	pour
16c#	e/-
16B	-ter-
=65	=65
2f#	-nel-
(4f#	-le-
=66	=66
*k[f#c#g#d#a#]	*
[4B)	-ment!
8B]}	|}
8r	.
4r	.
=67	=67
2.r	.
=68	=68
2.r	.
=69	=69
*M2/4	*
2r	.
=70	=70
2r	.
=71	=71
2r	.
==	==
*-	*-
